;FLAVOR:Marlin
;TIME:1280
;Filament used: 0.627426m
;Layer height: 0.2
;MINX:73.46
;MINY:60.46
;MINZ:0.2
;MAXX:106.54
;MAXY:119.54
;MAXZ:15.4
;Generated with Cura_SteamEngine 4.13.1
M140 S60
M105
M190 S60
M104 S200
M105
M109 S200
M82 ;absolute extrusion mode
G28 ; home all axes
 M117 Purge extruder
 G92 E0 ; reset extruder
 G1 Z1.0 F3000 ; move z up little to prevent scratching of surface
 G1 X2 Y20 Z0.3 F5000.0 ; move to start-line position
 G1 X2 Y175.0 Z0.3 F1500.0 E15 ; draw 1st line
 G1 X2 Y175.0 Z0.4 F5000.0 ; move to side a little
 G1 X2 Y20 Z0.4 F1500.0 E30 ; draw 2nd line
 G92 E0 ; reset extruder
 G1 Z1.0 F3000 ; move z up little to prevent scratching of surface
G92 E0
G92 E0
G1 F2400 E-4
;LAYER_COUNT:75
;LAYER:0
M107
G1 F300 Z0.6
G0 F6000 X76.045 Y64.742 Z0.6
;TYPE:SKIRT
G1 F300 Z0.2
G1 F2400 E0
G1 F1200 X76.681 Y64.022 E0.03515
G1 X77.374 Y63.357 E0.07029
G1 X78.12 Y62.752 E0.10543
G1 X78.914 Y62.211 E0.14058
G1 X79.75 Y61.738 E0.17572
G1 X80.622 Y61.336 E0.21085
G1 X81.525 Y61.008 E0.246
G1 X82.452 Y60.756 E0.28115
G1 X83.397 Y60.582 E0.3163
G1 X84.686 Y60.474 E0.36363
G1 X85.006 Y60.465 E0.37534
G1 X85.33 Y60.46 E0.38719
G1 X94.293 Y60.46 E0.71512
G1 X95.156 Y60.471 E0.74669
G1 X96.115 Y60.525 E0.78183
G1 X97.067 Y60.658 E0.817
G1 X98.004 Y60.87 E0.85215
G1 X98.92 Y61.159 E0.88729
G1 X99.809 Y61.524 E0.92245
G1 X100.664 Y61.961 E0.95758
G1 X101.48 Y62.467 E0.99271
G1 X102.251 Y63.04 E1.02785
G1 X102.972 Y63.675 E1.06301
G1 X103.638 Y64.368 E1.09817
G1 X104.244 Y65.113 E1.13331
G1 X104.785 Y65.907 E1.16846
G1 X105.259 Y66.743 E1.20362
G1 X105.661 Y67.615 E1.23875
G1 X105.99 Y68.518 E1.27391
G1 X106.242 Y69.444 E1.30902
G1 X106.417 Y70.389 E1.34418
G1 X106.526 Y71.686 E1.3918
G1 X106.535 Y72.006 E1.40351
G1 X106.54 Y72.33 E1.41537
G1 X106.539 Y78.443 E1.63902
G1 X106.528 Y79.187 E1.66624
G1 X106.472 Y80.159 E1.70186
G1 X106.366 Y81.222 E1.74095
G1 X106.15 Y83.762 E1.83421
G1 X106.007 Y86.302 E1.92729
G1 X105.937 Y88.77 E2.01762
G1 X105.937 Y91.3 E2.11018
G1 X106.007 Y93.756 E2.20007
G1 X106.152 Y96.314 E2.29381
G1 X106.363 Y98.794 E2.38487
G1 X106.455 Y99.66 E2.41673
G1 X106.484 Y99.97 E2.42813
G1 X106.525 Y100.658 E2.45334
G1 X106.535 Y100.999 E2.46582
G1 X106.54 Y101.337 E2.47819
G1 X106.539 Y107.407 E2.70027
G1 X106.53 Y108.134 E2.72687
G1 X106.478 Y109.093 E2.76201
G1 X106.347 Y110.045 E2.79716
G1 X106.137 Y110.982 E2.8323
G1 X105.849 Y111.899 E2.86746
G1 X105.487 Y112.788 E2.90258
G1 X105.051 Y113.645 E2.93776
G1 X104.546 Y114.462 E2.9729
G1 X103.975 Y115.234 E3.00803
G1 X103.341 Y115.956 E3.04318
G1 X102.65 Y116.623 E3.07832
G1 X101.906 Y117.23 E3.11345
G1 X101.113 Y117.773 E3.14861
G1 X100.278 Y118.248 E3.18376
G1 X99.407 Y118.653 E3.2189
G1 X98.505 Y118.983 E3.25404
G1 X97.579 Y119.237 E3.28917
G1 X96.634 Y119.413 E3.32434
G1 X95.314 Y119.526 E3.37281
G1 X94.993 Y119.535 E3.38456
G1 X94.67 Y119.54 E3.39638
G1 X85.558 Y119.539 E3.72975
G1 X84.86 Y119.53 E3.75529
G1 X83.901 Y119.478 E3.79043
G1 X82.949 Y119.346 E3.82559
G1 X82.012 Y119.135 E3.86073
G1 X81.096 Y118.847 E3.89586
G1 X80.206 Y118.484 E3.93103
G1 X79.35 Y118.048 E3.96617
G1 X78.533 Y117.543 E4.00131
G1 X77.761 Y116.971 E4.03647
G1 X77.04 Y116.337 E4.07159
G1 X76.373 Y115.646 E4.10673
G1 X75.766 Y114.901 E4.14189
G1 X75.224 Y114.108 E4.17703
G1 X74.749 Y113.273 E4.21218
G1 X74.345 Y112.401 E4.24734
G1 X74.015 Y111.499 E4.28248
G1 X73.761 Y110.573 E4.31761
G1 X73.586 Y109.628 E4.35277
G1 X73.473 Y108.303 E4.40142
G1 X73.464 Y107.97 E4.41361
G1 X73.46 Y107.658 E4.42503
G1 X73.461 Y101.527 E4.64934
G1 X73.472 Y100.807 E4.67568
G1 X73.528 Y99.839 E4.71116
G1 X73.634 Y98.77 E4.75046
G1 X73.85 Y96.24 E4.84336
G1 X73.993 Y93.696 E4.93658
G1 X74.063 Y91.231 E5.0268
G1 X74.063 Y88.7 E5.1194
G1 X73.994 Y86.244 E5.20929
G1 X73.848 Y83.685 E5.30307
G1 X73.637 Y81.207 E5.39406
G1 X73.545 Y80.34 E5.42595
G1 X73.514 Y80.01 E5.43808
G1 X73.475 Y79.342 E5.46256
G1 X73.465 Y79.003 E5.47497
G1 X73.46 Y78.663 E5.48741
G1 X73.461 Y72.5 E5.71289
G1 X73.471 Y71.835 E5.73722
G1 X73.526 Y70.876 E5.77237
G1 X73.66 Y69.925 E5.8075
G1 X73.872 Y68.988 E5.84265
G1 X74.162 Y68.073 E5.87777
G1 X74.527 Y67.184 E5.91293
G1 X74.965 Y66.329 E5.94808
G1 X75.472 Y65.513 E5.98322
G1 X76.045 Y64.742 E6.01837
G0 F6000 X76.479 Y64.907
G1 F1200 X77.112 Y64.209 E6.05284
G1 X77.802 Y63.568 E6.0873
G1 X78.544 Y62.987 E6.12178
G1 X79.332 Y62.471 E6.15624
G1 X80.162 Y62.024 E6.19073
G1 X81.026 Y61.649 E6.22519
G1 X81.919 Y61.348 E6.25967
G1 X82.834 Y61.124 E6.29413
G1 X83.765 Y60.979 E6.3286
G1 X84.698 Y60.913 E6.36282
G1 X85.018 Y60.904 E6.37454
G1 X85.33 Y60.9 E6.38595
G1 X94.293 Y60.9 E6.71387
G1 X95.15 Y60.911 E6.74523
G1 X96.091 Y60.965 E6.77972
G1 X97.023 Y61.098 E6.81416
G1 X97.941 Y61.309 E6.84862
G1 X98.838 Y61.598 E6.8831
G1 X99.707 Y61.962 E6.91757
G1 X100.542 Y62.398 E6.95203
G1 X101.337 Y62.903 E6.98649
G1 X102.087 Y63.474 E7.02098
G1 X102.785 Y64.107 E7.05545
G1 X103.427 Y64.796 E7.08991
G1 X104.009 Y65.537 E7.12438
G1 X104.525 Y66.325 E7.15884
G1 X104.973 Y67.154 E7.19332
G1 X105.348 Y68.018 E7.22778
G1 X105.65 Y68.911 E7.26227
G1 X105.874 Y69.826 E7.29673
G1 X106.02 Y70.757 E7.33121
G1 X106.087 Y71.698 E7.36572
G1 X106.096 Y72.018 E7.37744
G1 X106.1 Y72.33 E7.38885
G1 X106.099 Y78.436 E7.61225
G1 X106.088 Y79.18 E7.63947
G1 X106.034 Y80.116 E7.67377
G1 X105.932 Y81.144 E7.71157
G1 X105.708 Y83.769 E7.80795
G1 X105.57 Y86.231 E7.89817
G1 X105.497 Y88.793 E7.99194
G1 X105.497 Y91.277 E8.08282
G1 X105.569 Y93.828 E8.17619
G1 X105.71 Y96.305 E8.26696
G1 X105.929 Y98.88 E8.36151
G1 X106.036 Y99.897 E8.39892
G1 X106.046 Y100.009 E8.40304
G1 X106.085 Y100.671 E8.4273
G1 X106.095 Y101.012 E8.43978
G1 X106.1 Y101.337 E8.45167
G1 X106.099 Y107.401 E8.67353
G1 X106.09 Y108.128 E8.70013
G1 X106.039 Y109.069 E8.73461
G1 X105.907 Y110.002 E8.76908
G1 X105.697 Y110.921 E8.80357
G1 X105.41 Y111.818 E8.83803
G1 X105.048 Y112.688 E8.87251
G1 X104.614 Y113.524 E8.90697
G1 X104.11 Y114.32 E8.94144
G1 X103.541 Y115.07 E8.97588
G1 X102.909 Y115.77 E9.01038
G1 X102.221 Y116.413 E9.04484
G1 X101.481 Y116.996 E9.0793
G1 X100.694 Y117.514 E9.11377
G1 X99.866 Y117.963 E9.14823
G1 X99.003 Y118.341 E9.1827
G1 X98.111 Y118.644 E9.21717
G1 X97.196 Y118.87 E9.25165
G1 X96.266 Y119.018 E9.28611
G1 X95.302 Y119.087 E9.32147
G1 X94.981 Y119.096 E9.33321
G1 X94.67 Y119.1 E9.34459
G1 X85.564 Y119.099 E9.67775
G1 X84.866 Y119.09 E9.70329
G1 X83.925 Y119.038 E9.73777
G1 X82.992 Y118.906 E9.77224
G1 X82.074 Y118.696 E9.8067
G1 X81.177 Y118.408 E9.84116
G1 X80.307 Y118.046 E9.87564
G1 X79.471 Y117.611 E9.91012
G1 X78.676 Y117.107 E9.94456
G1 X77.925 Y116.537 E9.97905
G1 X77.226 Y115.905 E10.01353
G1 X76.583 Y115.217 E10.04798
G1 X76.001 Y114.476 E10.08245
G1 X75.483 Y113.689 E10.11692
G1 X75.034 Y112.861 E10.15138
G1 X74.657 Y111.997 E10.18587
G1 X74.355 Y111.105 E10.22033
G1 X74.129 Y110.191 E10.25477
G1 X73.982 Y109.26 E10.28926
G1 X73.913 Y108.291 E10.3248
G1 X73.904 Y107.958 E10.33699
G1 X73.9 Y107.658 E10.34796
G1 X73.901 Y101.533 E10.57205
G1 X73.912 Y100.813 E10.5984
G1 X73.966 Y99.882 E10.63252
G1 X74.069 Y98.849 E10.6705
G1 X74.292 Y96.231 E10.76663
G1 X74.43 Y93.77 E10.85681
G1 X74.503 Y91.207 E10.95062
G1 X74.503 Y88.724 E11.04146
G1 X74.431 Y86.171 E11.1349
G1 X74.29 Y83.694 E11.22567
G1 X74.071 Y81.12 E11.32018
G1 X73.962 Y80.086 E11.35822
G1 X73.952 Y79.972 E11.36241
G1 X73.915 Y79.329 E11.38598
G1 X73.905 Y78.99 E11.39838
G1 X73.9 Y78.663 E11.41035
G1 X73.901 Y72.507 E11.63557
G1 X73.911 Y71.842 E11.65991
G1 X73.965 Y70.902 E11.69435
G1 X74.099 Y69.969 E11.72884
G1 X74.311 Y69.051 E11.76331
G1 X74.601 Y68.154 E11.7978
G1 X74.965 Y67.286 E11.83223
G1 X75.402 Y66.451 E11.86671
G1 X75.908 Y65.656 E11.90119
G1 X76.479 Y64.907 E11.93565
G0 F6000 X76.913 Y65.076
G1 F1200 X77.543 Y64.401 E11.96943
G1 X78.229 Y63.783 E12.00321
G1 X78.967 Y63.228 E12.037
G1 X79.749 Y62.738 E12.07076
G1 X80.571 Y62.317 E12.10455
G1 X81.426 Y61.969 E12.13832
G1 X82.309 Y61.697 E12.17212
G1 X83.211 Y61.502 E12.20589
G1 X84.127 Y61.386 E12.23967
G1 X84.71 Y61.353 E12.26103
G1 X85.03 Y61.344 E12.27274
G1 X85.33 Y61.34 E12.28372
G1 X94.293 Y61.34 E12.61164
G1 X95.144 Y61.351 E12.64278
G1 X96.065 Y61.404 E12.67653
G1 X96.979 Y61.537 E12.71032
G1 X97.878 Y61.748 E12.74411
G1 X98.755 Y62.037 E12.77789
G1 X99.604 Y62.4 E12.81167
G1 X100.418 Y62.835 E12.84544
G1 X101.192 Y63.339 E12.87923
G1 X101.919 Y63.908 E12.91301
G1 X102.594 Y64.538 E12.94679
G1 X103.212 Y65.224 E12.98057
G1 X103.768 Y65.96 E13.01432
G1 X104.259 Y66.743 E13.04813
G1 X104.68 Y67.564 E13.08189
G1 X105.028 Y68.419 E13.11566
G1 X105.301 Y69.301 E13.14944
G1 X105.497 Y70.203 E13.18321
G1 X105.614 Y71.119 E13.21699
G1 X105.647 Y71.71 E13.23865
G1 X105.656 Y72.03 E13.25036
G1 X105.66 Y72.33 E13.26134
G1 X105.659 Y78.43 E13.48452
G1 X105.648 Y79.174 E13.51174
G1 X105.597 Y80.072 E13.54465
G1 X105.492 Y81.128 E13.58347
G1 X105.269 Y83.743 E13.67949
G1 X105.129 Y86.229 E13.77059
G1 X105.057 Y88.781 E13.86399
G1 X105.057 Y91.289 E13.95575
G1 X105.129 Y93.831 E14.04879
G1 X105.271 Y96.333 E14.14048
G1 X105.491 Y98.916 E14.23532
G1 X105.598 Y99.936 E14.27284
G1 X105.608 Y100.048 E14.27696
G1 X105.645 Y100.684 E14.30027
G1 X105.655 Y101.025 E14.31275
G1 X105.66 Y101.337 E14.32416
G1 X105.659 Y107.396 E14.54584
G1 X105.65 Y108.123 E14.57244
G1 X105.599 Y109.045 E14.60622
G1 X105.468 Y109.959 E14.64
G1 X105.258 Y110.858 E14.67378
G1 X104.972 Y111.736 E14.70756
G1 X104.61 Y112.585 E14.74133
G1 X104.177 Y113.4 E14.7751
G1 X103.674 Y114.175 E14.8089
G1 X103.107 Y114.903 E14.84266
G1 X102.478 Y115.579 E14.87644
G1 X101.793 Y116.199 E14.91024
G1 X101.058 Y116.756 E14.94398
G1 X100.276 Y117.248 E14.97779
G1 X99.456 Y117.671 E15.01154
G1 X98.601 Y118.021 E15.04534
G1 X97.72 Y118.296 E15.07911
G1 X96.818 Y118.493 E15.11289
G1 X95.902 Y118.612 E15.14668
G1 X95.29 Y118.647 E15.16911
G1 X94.969 Y118.656 E15.18086
G1 X94.67 Y118.66 E15.1918
G1 X85.57 Y118.659 E15.52473
G1 X84.872 Y118.65 E15.55027
G1 X83.95 Y118.598 E15.58406
G1 X83.036 Y118.467 E15.61784
G1 X82.137 Y118.257 E15.65162
G1 X81.259 Y117.97 E15.68541
G1 X80.41 Y117.608 E15.71918
G1 X79.595 Y117.174 E15.75296
G1 X78.821 Y116.671 E15.78673
G1 X78.093 Y116.103 E15.82052
G1 X77.417 Y115.474 E15.8543
G1 X76.798 Y114.789 E15.88808
G1 X76.241 Y114.053 E15.92185
G1 X75.749 Y113.272 E15.95562
G1 X75.327 Y112.451 E15.98939
G1 X74.977 Y111.596 E16.02319
G1 X74.703 Y110.715 E16.05695
G1 X74.506 Y109.813 E16.09072
G1 X74.388 Y108.897 E16.12451
G1 X74.353 Y108.279 E16.14716
G1 X74.344 Y107.946 E16.15935
G1 X74.34 Y107.658 E16.16989
G1 X74.341 Y101.54 E16.39372
G1 X74.352 Y100.82 E16.42007
G1 X74.404 Y99.926 E16.45283
G1 X74.503 Y98.934 E16.4893
G1 X74.731 Y96.257 E16.5876
G1 X74.871 Y93.772 E16.67866
G1 X74.943 Y91.219 E16.7721
G1 X74.943 Y88.711 E16.86386
G1 X74.871 Y86.169 E16.9569
G1 X74.729 Y83.669 E17.04851
G1 X74.509 Y81.08 E17.14357
G1 X74.42 Y80.246 E17.17426
G1 X74.391 Y79.934 E17.18572
G1 X74.355 Y79.316 E17.20837
G1 X74.345 Y78.977 E17.22078
G1 X74.34 Y78.663 E17.23227
G1 X74.341 Y72.514 E17.45724
G1 X74.351 Y71.849 E17.48157
G1 X74.405 Y70.927 E17.51536
G1 X74.538 Y70.013 E17.54915
G1 X74.75 Y69.115 E17.58291
G1 X75.039 Y68.238 E17.61669
G1 X75.403 Y67.389 E17.65049
G1 X75.839 Y66.575 E17.68427
G1 X76.343 Y65.802 E17.71804
G1 X76.913 Y65.076 E17.75181
G0 F6000 X77.346 Y65.248
G1 F1200 X77.974 Y64.597 E17.7849
G1 X78.656 Y64.004 E17.81796
G1 X79.388 Y63.474 E17.85103
G1 X80.164 Y63.011 E17.88409
G1 X80.978 Y62.618 E17.91716
G1 X81.824 Y62.298 E17.95025
G1 X82.695 Y62.055 E17.98333
G1 X83.583 Y61.889 E18.01639
G1 X84.723 Y61.793 E18.05824
G1 X85.043 Y61.784 E18.06995
G1 X85.33 Y61.78 E18.08045
G1 X94.293 Y61.78 E18.40838
G1 X95.137 Y61.791 E18.43926
G1 X96.04 Y61.844 E18.47235
G1 X96.934 Y61.976 E18.50541
G1 X97.813 Y62.187 E18.53849
G1 X98.67 Y62.475 E18.57156
G1 X99.498 Y62.838 E18.60464
G1 X100.291 Y63.272 E18.63771
G1 X101.043 Y63.774 E18.67079
G1 X101.747 Y64.341 E18.70387
G1 X102.398 Y64.968 E18.73693
G1 X102.991 Y65.65 E18.77
G1 X103.522 Y66.382 E18.80308
G1 X103.986 Y67.158 E18.83616
G1 X104.379 Y67.972 E18.86923
G1 X104.699 Y68.817 E18.90229
G1 X104.944 Y69.688 E18.9354
G1 X105.11 Y70.576 E18.96845
G1 X105.207 Y71.723 E19.01056
G1 X105.216 Y72.043 E19.02227
G1 X105.22 Y72.33 E19.03277
G1 X105.219 Y78.423 E19.25569
G1 X105.208 Y79.167 E19.28292
G1 X105.159 Y80.028 E19.31447
G1 X105.051 Y81.118 E19.35454
G1 X104.832 Y83.68 E19.44862
G1 X104.689 Y86.227 E19.54195
G1 X104.617 Y88.768 E19.63495
G1 X104.617 Y91.302 E19.72766
G1 X104.689 Y93.833 E19.8203
G1 X104.834 Y96.394 E19.91415
G1 X105.052 Y98.952 E20.00807
G1 X105.16 Y99.975 E20.04571
G1 X105.17 Y100.087 E20.04982
G1 X105.206 Y100.696 E20.07214
G1 X105.216 Y101.037 E20.08462
G1 X105.22 Y101.337 E20.0956
G1 X105.219 Y107.391 E20.31709
G1 X105.21 Y108.118 E20.34369
G1 X105.159 Y109.02 E20.37675
G1 X105.028 Y109.915 E20.40984
G1 X104.819 Y110.794 E20.4429
G1 X104.533 Y111.651 E20.47595
G1 X104.172 Y112.48 E20.50903
G1 X103.74 Y113.274 E20.5421
G1 X103.238 Y114.027 E20.57521
G1 X102.673 Y114.732 E20.60827
G1 X102.047 Y115.384 E20.64133
G1 X101.366 Y115.979 E20.67442
G1 X100.635 Y116.511 E20.7075
G1 X99.861 Y116.976 E20.74053
G1 X99.047 Y117.371 E20.77363
G1 X98.203 Y117.693 E20.80668
G1 X97.333 Y117.939 E20.83976
G1 X96.445 Y118.107 E20.87283
G1 X95.277 Y118.207 E20.91572
G1 X94.956 Y118.216 E20.92746
G1 X94.67 Y118.22 E20.93793
G1 X85.575 Y118.219 E21.27068
G1 X84.877 Y118.21 E21.29622
G1 X83.975 Y118.159 E21.32927
G1 X83.08 Y118.027 E21.36237
G1 X82.201 Y117.818 E21.39543
G1 X81.344 Y117.531 E21.42849
G1 X80.515 Y117.17 E21.46157
G1 X79.721 Y116.737 E21.49466
G1 X78.969 Y116.235 E21.52774
G1 X78.264 Y115.669 E21.56082
G1 X77.612 Y115.043 E21.59389
G1 X77.018 Y114.362 E21.62695
G1 X76.486 Y113.631 E21.66003
G1 X76.021 Y112.856 E21.69309
G1 X75.626 Y112.043 E21.72616
G1 X75.305 Y111.198 E21.75923
G1 X75.06 Y110.328 E21.7923
G1 X74.892 Y109.439 E21.8254
G1 X74.793 Y108.267 E21.86843
G1 X74.784 Y107.934 E21.88062
G1 X74.78 Y107.658 E21.89072
G1 X74.781 Y101.547 E22.1143
G1 X74.792 Y100.827 E22.14064
G1 X74.841 Y99.97 E22.17205
G1 X74.95 Y98.875 E22.21231
G1 X75.168 Y96.322 E22.30605
G1 X75.311 Y93.771 E22.39953
G1 X75.383 Y91.232 E22.49246
G1 X75.383 Y88.699 E22.58513
G1 X75.311 Y86.166 E22.67784
G1 X75.166 Y83.605 E22.77169
G1 X74.948 Y81.049 E22.86554
G1 X74.839 Y80.009 E22.9038
G1 X74.829 Y79.895 E22.90799
G1 X74.794 Y79.303 E22.92969
G1 X74.784 Y78.964 E22.94209
G1 X74.78 Y78.663 E22.95311
G1 X74.781 Y72.52 E23.17786
G1 X74.791 Y71.855 E23.20219
G1 X74.845 Y70.953 E23.23525
G1 X74.978 Y70.059 E23.26832
G1 X75.189 Y69.18 E23.30139
G1 X75.478 Y68.323 E23.33448
G1 X75.841 Y67.495 E23.36756
G1 X76.276 Y66.703 E23.40061
G1 X76.779 Y65.952 E23.43368
G1 X77.346 Y65.248 E23.46676
G1 F2400 E19.46676
G1 F300 Z0.6
;MESH:top v2.stl
G0 F6000 X88.119 Y106.9 Z0.6
;TYPE:WALL-INNER
G1 F300 Z0.2
G1 F2400 E23.46676
G1 F1200 X86.1 Y106.9 E23.54062
G1 X86.1 Y102.096 E23.71638
G1 X93.9 Y102.097 E24.00176
G1 X93.9 Y106.9 E24.17748
G1 X91.887 Y106.9 E24.25113
G1 X91.933 Y106.846 E24.25372
G1 X92.164 Y106.43 E24.27113
G1 X92.307 Y105.974 E24.28862
G1 X92.355 Y105.5 E24.30605
G1 X92.307 Y105.026 E24.32348
G1 X92.164 Y104.57 E24.34096
G1 X91.933 Y104.154 E24.35837
G1 X91.623 Y103.794 E24.37575
G1 X91.246 Y103.501 E24.39322
G1 X90.819 Y103.291 E24.41063
G1 X90.356 Y103.171 E24.42813
G1 X89.88 Y103.147 E24.44557
G1 X89.41 Y103.22 E24.46297
G1 X88.963 Y103.386 E24.48041
G1 X88.56 Y103.637 E24.49778
G1 X88.214 Y103.964 E24.5152
G1 X87.941 Y104.355 E24.53265
G1 X87.752 Y104.795 E24.55017
G1 X87.656 Y105.262 E24.56761
G1 X87.656 Y105.738 E24.58503
G1 X87.752 Y106.205 E24.60247
G1 X87.941 Y106.645 E24.61999
G1 X88.119 Y106.9 E24.63137
G0 F6000 X88.549 Y106.747
G1 F1200 X88.83 Y107.013 E24.64552
G1 X89.158 Y107.217 E24.65965
G1 X89.489 Y107.34 E24.67257
G1 X88.83 Y107.34 E24.68572
G1 X85.66 Y107.34 E24.80169
G1 X85.66 Y101.656 E25.00965
G1 X94.34 Y101.657 E25.32722
G1 X94.34 Y107.34 E25.53514
G1 X91.012 Y107.34 E25.6569
G1 X90.489 Y107.34 E25.67603
G1 X90.665 Y107.294
